packages/icons/src/components/Icon/assets/small-outline/credential.svg

<svg width="16" height="16" viewBox="0 0 16 16" fill="none" xmlns="http://www.w3.org/2000/svg">
<path fill-rule="evenodd" clip-rule="evenodd" d="M10.2536 2.68179C8.56098 2.68179 7.18883 4.05394 7.18883 5.74658C7.18883 5.92636 7.20425 6.10211 7.23372 6.27268C7.31388 6.7366 7.22266 7.28888 6.8249 7.68664L2.9194 11.5921C2.76726 11.7443 2.68179 11.9506 2.68179 12.1658V13.3184H3.85362V12.5071C3.85362 12.2084 4.09576 11.9663 4.39446 11.9663H5.20573V11.155C5.20573 10.8563 5.44788 10.6142 5.74658 10.6142H6.87466L8.31355 9.17529C8.71131 8.77754 9.26359 8.68632 9.72751 8.76647C9.89809 8.79594 10.0738 8.81137 10.2536 8.81137C11.9463 8.81137 13.3184 7.43921 13.3184 5.74658C13.3184 4.05394 11.9463 2.68179 10.2536 2.68179ZM6.10714 5.74658C6.10714 3.45654 7.96358 1.6001 10.2536 1.6001C12.5437 1.6001 14.4001 3.45654 14.4001 5.74658C14.4001 8.03661 12.5437 9.89306 10.2536 9.89306C10.0118 9.89306 9.77449 9.87231 9.54335 9.83237C9.33059 9.79561 9.16624 9.85235 9.07842 9.94017L7.48112 11.5375C7.3797 11.6389 7.24213 11.6959 7.09869 11.6959H6.28742V12.5071C6.28742 12.8058 6.04528 13.048 5.74658 13.048H4.93531V13.8593C4.93531 14.158 4.69316 14.4001 4.39446 14.4001H2.14094C1.84224 14.4001 1.6001 14.158 1.6001 13.8593V12.1658C1.6001 11.6638 1.79953 11.1823 2.15453 10.8273L6.06003 6.92177C6.14785 6.83396 6.20459 6.66961 6.16783 6.45685C6.12789 6.2257 6.10714 5.98835 6.10714 5.74658ZM9.71277 3.94376C9.71277 3.64506 9.95492 3.40291 10.2536 3.40291C11.548 3.40291 12.5973 4.45221 12.5973 5.74658C12.5973 6.04528 12.3551 6.28742 12.0564 6.28742C11.7577 6.28742 11.5156 6.04528 11.5156 5.74658C11.5156 5.04961 10.9506 4.4846 10.2536 4.4846C9.95492 4.4846 9.71277 4.24246 9.71277 3.94376Z" fill="black"/>
</svg>

<svg xmlns="http://www.w3.org/2000/svg" width="16" height="16" fill="none" viewBox="0 0 16 16">
    <path d="M10.254 2.682a3.065 3.065 0 0 0-3.02 3.59c.08.465-.011 1.017-.41 1.415L2.92 11.592a.8.8 0 0 0-.237.574v1.152h1.172v-.81a.54.54 0 0 1 .54-.542h.812v-.811a.54.54 0 0 1 .54-.54h1.129l1.439-1.44c.397-.397.95-.489 1.414-.409q.256.045.526.045a3.065 3.065 0 1 0 0-6.13M6.107 5.747a4.146 4.146 0 1 1 3.436 4.085c-.212-.036-.377.02-.465.108l-1.597 1.598a.54.54 0 0 1-.382.158h-.812v.811a.54.54 0 0 1-.54.541h-.812v.811a.54.54 0 0 1-.54.541H2.14a.54.54 0 0 1-.54-.54v-1.694c0-.502.199-.984.554-1.339L6.06 6.922c.088-.088.145-.252.108-.465a4 4 0 0 1-.06-.71m3.606-1.803a.54.54 0 0 1 .54-.541 2.344 2.344 0 0 1 2.344 2.344.54.54 0 0 1-1.081 0c0-.697-.565-1.262-1.262-1.262a.54.54 0 0 1-.541-.541" clip-rule="evenodd"/>
</svg>
